X: 30202
T: Old Grey Gander, The
R: reel
M: 4/4
K: Adorian
AG|EAAB c2 BA|BGGA BcdB|AEAB cdef|1 gedB c2 (BA):|2 gedB (BA) A2||
a2 ea a2 ge|d2 BG (Bd) d2|a2 ea a2 ba|gedB T(BA) A2|
a2 ea a2 ge|d2 BG (Bd) d2|EAAB cdef|gedB T(BA) A2||

